X:1605
T:C Doubling Scale
C: Kevin Fraser
B: https://bagpipes.ksfraser.com
O: Kevin Fraser
Z:Kevin Fraser
Q:1/4=78
K:HP
M:4/4
L:1/4
%%MIDI gracedivider 4
%%MIDI gchord
%%MIDI beatstring 
[| G {gcd}c A {gcd}c | B {gcd}c c {gcd}c | d {gcd}c e {gcd}c | f {gcd}c g {acd}c | 
w: em hoto en hoto | o hoto o hoto   | a hoto e hoto | ve hoto di hoto |
w: |||- thumb gracenote ^|
a {cd}c a {cd}c | g {acd}c f {gcd}c | e {gcd}c d {gcd}c | c {gcd}c B {gcd}c | A {gcd}c G {gcd}c |]
w: I iodo  I iodo  |  di hoto ve hoto | e hoto a hoto | o hoto o hoto | en hoto em hoto
w: ^ Half Doublings ^|
W:
W: Note the High A gracenote from High G for this doubling!
W: Note the Half Doubling from High A


